LUTs/CinemaGamut_CanonLog3-to-BT709_WideDR_65_FF_Ver.2.0.cube
# Gamut : Cinema Gamut to BT.709
# Gamma : Canon Log 3 to Wide DR
# Range : Full in / Full out
# Version : 2.0 2019/10/24
# Copyright(c) 2019 Canon Inc. All Rights Reserved.
LUT_3D_SIZE 65
# LUT_3D_INPUT_RANGE 0.0 1.0
0.00000000 0.00000000 0.00000000
0.00000000 0.00000000 0.00000000
0.00000000 0.00000000 0.00000000
0.00000000 0.00000000 0.00000000
0.00000000 0.00000000 0.00000000
0.00000000 0.00000000 0.00000000
0.00000000 0.00000000 0.00000000
0.00000000 0.00000000 0.00000000
0.00000000 0.00000000 0.00000000
0.03381711 0.00333686 0.00590576
0.07741911 0.00250308 0.00877485
0.11997438 0.00030783 0.01069722
0.15790963 0.00000000 0.01264241
0.19302300 0.00000000 0.01490980
0.22643895 0.00000000 0.01752988
0.25867070 0.00000000 0.02059566
0.29002173 0.00000000 0.02420149
0.32051769 0.00000000 0.02853372
0.35063290 0.00000000 0.03350771
0.38075771 0.00000000 0.03900072
0.41105021 0.00000000 0.04497103
0.44150719 0.00000000 0.05145859
0.47207104 0.00000000 0.05853889
0.50286410 0.00000000 0.06614144
0.53397599 0.00000000 0.07419077
0.56424275 0.00000000 0.08225569
0.59270303 0.00000000 0.08964820
0.61978316 0.00000000 0.09626350
0.64574578 0.00000000 0.10215907
0.67076227 0.00000000 0.10737185
0.69495534 0.00000000 0.11191681
0.71840649 0.00000000 0.11580242
0.74117321 0.00000000 0.11902897
0.76326516 0.00000000 0.12162082
0.78470666 0.00000000 0.12357435
0.80551282 0.00000000 0.12488453
0.82567878 0.00000000 0.12556452
0.84520397 0.00000000 0.12560997
0.86407786 0.00000000 0.12502904
0.88228617 0.00000000 0.12383430
0.89980762 0.00000000 0.12204816
0.91661443 0.00000000 0.11970490
0.93265904 0.00000000 0.11686932
0.94786290 0.00000000 0.11365655
0.96207946 0.00000000 0.11028840
0.97503237 0.00000000 0.10719214
0.98623406 0.00222678 0.10513601
0.99492779 0.01375622 0.10531988
0.99958425 0.03433391 0.10998000
1.00000000 0.05913156 0.11657559
1.00000000 0.08587905 0.12397493
1.00000000 0.11062688 0.13159402
1.00000000 0.13238427 0.13918874
1.00000000 0.15174339 0.14661254
1.00000000 0.16925978 0.15388885
1.00000000 0.18540357 0.16111987
1.00000000 0.20056583 0.16844357
1.00000000 0.21508084 0.17601820
1.00000000 0.22923366 0.18400646
1.00000000 0.24327317 0.19257100
1.00000000 0.25739745 0.20184928
1.00000000 0.27172372 0.21191322
1.00000000 0.28618720 0.22265515
1.00000000 0.30030124 0.23352001
1.00000000 0.31250173 0.24278173
0.00000000 0.00000000 0.00000000
0.00000000 0.00000000 0.00000000
0.00000000 0.00000000 0.00000000
0.00000000 0.00000000 0.00000000
0.00000000 0.00000000 0.00000000
0.00000000 0.00000000 0.00000000
0.00000000 0.00000000 0.00000000
0.00000000 0.00000000 0.00000000
0.00000000 0.00000000 0.00000000
0.03381711 0.00333686 0.00590576
0.07741911 0.00250308 0.00877485
0.11997438 0.00030783 0.01069722
0.15790963 0.00000000 0.01264241
0.19302300 0.00000000 0.01490980
0.22643895 0.00000000 0.01752988
0.25867070 0.00000000 0.02059566
0.29002173 0.00000000 0.02420149
0.32051769 0.00000000 0.02853372
0.35063290 0.00000000 0.03350771
0.38075771 0.00000000 0.03900072
0.41105021 0.00000000 0.04497103
0.44150719 0.00000000 0.05145859
0.47207104 0.00000000 0.05853889
0.50286410 0.00000000 0.06614144
0.53397599 0.00000000 0.07419077
0.56424275 0.00000000 0.08225569
0.59270303 0.00000000 0.08964820
0.61978316 0.00000000 0.09626350
0.64574578 0.00000000 0.10215907
0.67076227 0.00000000 0.10737185
0.69495534 0.00000000 0.11191681
0.71840649 0.00000000 0.11580242
0.74117321 0.00000000 0.11902897
0.76326516 0.00000000 0.12162082
0.78470666 0.00000000 0.12357435
0.80551282 0.00000000 0.12488453
0.82567878 0.00000000 0.12556452
0.84520397 0.00000000 0.12560997
0.86407786 0.00000000 0.12502904
0.88228617 0.00000000 0.12383430
0.89980762 0.00000000 0.12204816
0.91661443 0.00000000 0.11970490
0.93265904 0.00000000 0.11686932
0.94786290 0.00000000 0.11365655
0.96207946 0.00000000 0.11028840
0.97503237 0.00000000 0.10719214
0.98623406 0.00222678 0.10513601
0.99492779 0.01375622 0.10531988
0.99958425 0.03433391 0.10998000
1.00000000 0.05913156 0.11657559
1.00000000 0.08587905 0.12397493
1.00000000 0.11062688 0.13159402
1.00000000 0.13238427 0.13918874
1.00000000 0.15174339 0.14661254
1.00000000 0.16925978 0.15388885
1.00000000 0.18540357 0.16111987
1.00000000 0.20056583 0.16844357
1.00000000 0.21508084 0.17601820
1.00000000 0.22923366 0.18400646
1.00000000 0.24327317 0.19257100
1.00000000 0.25739745 0.20184928
1.00000000 0.27172372 0.21191322
1.00000000 0.28618720 0.22265515
1.00000000 0.30030124 0.23352001
1.00000000 0.31250173 0.24278173
0.00000000 0.00000000 0.00000000
0.00000000 0.00000000 0.00000000
0.00000000 0.00000000 0.00000000
0.00000000 0.00000000 0.00000000
0.00000000 0.00000000 0.00000000
0.00000000 0.00000000 0.00000000
0.00000000 0.00000000 0.00000000
0.00000000 0.00000000 0.00000000
0.00000000 0.00000000 0.00000000
0.03381711 0.00333686 0.00590576
0.07741911 0.00250308 0.00877485
0.11997438 0.00030783 0.01069722
0.15790963 0.00000000 0.01264241
0.19302300 0.00000000 0.01490980
0.22643895 0.00000000 0.01752988
0.25867070 0.00000000 0.02059566
0.29002173 0.00000000 0.02420149
0.32051769 0.00000000 0.02853372
0.35063290 0.00000000 0.03350771
0.38075771 0.00000000 0.03900072
0.41105021 0.00000000 0.04497103
0.44150719 0.00000000 0.05145859
0.47207104 0.00000000 0.05853889
0.50286410 0.00000000 0.06614144
0.53397599 0.00000000 0.07419077
0.56424275 0.00000000 0.08225569
0.59270303 0.00000000 0.08964820
0.61978316 0.00000000 0.09626350
0.64574578 0.00000000 0.10215907
0.67076227 0.00000000 0.10737185
0.69495534 0.00000000 0.11191681
0.71840649 0.00000000 0.11580242
0.74117321 0.00000000 0.11902897
0.76326516 0.00000000 0.12162082
0.78470666 0.00000000 0.12357435
0.80551282 0.00000000 0.12488453
0.82567878 0.00000000 0.12556452
0.84520397 0.00000000 0.12560997
0.86407786 0.00000000 0.12502904
0.88228617 0.00000000 0.12383430
0.89980762 0.00000000 0.12204816
0.91661443 0.00000000 0.11970490
0.93265904 0.00000000 0.11686932
0.94786290 0.00000000 0.11365655
0.96207946 0.00000000 0.11028840
0.97503237 0.00000000 0.10719214
0.98623406 0.00222678 0.10513601
0.99492779 0.01375622 0.10531988
0.99958425 0.03433391 0.10998000
1.00000000 0.05913156 0.11657559
1.00000000 0.08587905 0.12397493
1.00000000 0.11062688 0.13159402
1.00000000 0.13238427 0.13918874
1.00000000 0.15174339 0.14661254
1.00000000 0.16925978 0.15388885
1.00000000 0.18540357 0.16111987
1.00000000 0.20056583 0.16844357
1.00000000 0.21508084 0.17601820
1.00000000 0.22923366 0.18400646
1.00000000 0.24327317 0.19257100
1.00000000 0.25739745 0.20184928
1.00000000 0.27172372 0.21191322
1.00000000 0.28618720 0.22265515
1.00000000 0.30030124 0.23352001
1.00000000 0.31250173 0.24278173
0.00000000 0.00000000 0.00000000
0.00000000 0.00000000 0.00000000
0.00000000 0.00000000 0.00000000
0.00000000 0.00000000 0.00000000
0.00000000 0.00000000 0.00000000
0.00000000 0.00000000 0.00000000
0.00000000 0.00000000 0.00000000
0.00000000 0.00000000 0.00000000
0.00000000 0.00000000 0.00000000
0.03381711 0.00333686 0.00590576
0.07741911 0.00250308 0.00877485
0.11997438 0.00030783 0.01069722
0.15790963 0.00000000 0.01264241
0.19302300 0.00000000 0.01490980
0.22643895 0.00000000 0.01752988
0.25867070 0.00000000 0.02059566
0.29002173 0.00000000 0.02420149
0.32051769 0.00000000 0.02853372
0.35063290 0.00000000 0.03350771
0.38075771 0.00000000 0.03900072
0.41105021 0.00000000 0.04497103
0.44150719 0.00000000 0.05145859
0.47207104 0.00000000 0.05853889
0.50286410 0.00000000 0.06614144
0.53397599 0.00000000 0.07419077
0.56424275 0.00000000 0.08225569
0.59270303 0.00000000 0.08964820
0.61978316 0.00000000 0.09626350
0.64574578 0.00000000 0.10215907
0.67076227 0.00000000 0.10737185
0.69495534 0.00000000 0.11191681
0.71840649 0.00000000 0.11580242
0.74117321 0.00000000 0.11902897
0.76326516 0.00000000 0.12162082
0.78470666 0.00000000 0.12357435
0.80551282 0.00000000 0.12488453
0.82567878 0.00000000 0.12556452
0.84520397 0.00000000 0.12560997
0.86407786 0.00000000 0.12502904
0.88228617 0.00000000 0.12383430
0.89980762 0.00000000 0.12204816
0.91661443 0.00000000 0.11970490
0.93265904 0.00000000 0.11686932
0.94786290 0.00000000 0.11365655
0.96207946 0.00000000 0.11028840
0.97503237 0.00000000 0.10719214
0.98623406 0.00222678 0.10513601
0.99492779 0.01375622 0.10531988
0.99958425 0.03433391 0.10998000
1.00000000 0.05913156 0.11657559
1.00000000 0.08587905 0.12397493
1.00000000 0.11062688 0.13159402
1.00000000 0.13238427 0.13918874
1.00000000 0.15174339 0.14661254
1.00000000 0.16925978 0.15388885
1.00000000 0.18540357 0.16111987
1.00000000 0.20056583 0.16844357
1.00000000 0.21508084 0.17601820
1.00000000 0.22923366 0.18400646
1.00000000 0.24327317 0.19257100
1.00000000 0.25739745 0.20184928
1.00000000 0.27172372 0.21191322
1.00000000 0.28618720 0.22265515
1.00000000 0.30030124 0.23352001
1.00000000 0.31250173 0.24278173
0.00000000 0.00000000 0.00000000
0.00000000 0.00000000 0.00000000
0.00000000 0.00000000 0.00000000
0.00000000 0.00000000 0.00000000
0.00000000 0.00000000 0.00000000
0.00000000 0.00000000 0.00000000
0.00000000 0.00000000 0.00000000
0.00000000 0.00000000 0.00000000
0.00000000 0.00000000 0.00000000
0.03381711 0.00333686 0.00590576
0.07741911 0.00250308 0.00877485
0.11997438 0.00030783 0.01069722
0.15790963 0.00000000 0.01264241
0.19302300 0.00000000 0.01490980
0.22643895 0.00000000 0.01752988
0.25867070 0.00000000 0.02059566
0.29002173 0.00000000 0.02420149
0.32051769 0.00000000 0.02853372
0.35063290 0.00000000 0.03350771
0.38075771 0.00000000 0.03900072
0.41105021 0.00000000 0.04497103
0.44150719 0.00000000 0.05145859
0.47207104 0.00000000 0.05853889
0.50286410 0.00000000 0.06614144
0.53397599 0.00000000 0.07419077
0.56424275 0.00000000 0.08225569
0.59270303 0.00000000 0.08964820
0.61978316 0.00000000 0.09626350
0.64574578 0.00000000 0.10215907
0.67076227 0.00000000 0.10737185
0.69495534 0.00000000 0.11191681
0.71840649 0.00000000 0.11580242
0.74117321 0.00000000 0.11902897
0.76326516 0.00000000 0.12162082
0.78470666 0.00000000 0.12357435
0.80551282 0.00000000 0.12488453
0.82567878 0.00000000 0.12556452
0.84520397 0.00000000 0.12560997
0.86407786 0.00000000 0.12502904
0.88228617 0.00000000 0.12383430
0.89980762 0.00000000 0.12204816
0.91661443 0.00000000 0.11970490
0.93265904 0.00000000 0.11686932
0.94786290 0.00000000 0.11365655
0.96207946 0.00000000 0.11028840
0.97503237 0.00000000 0.10719214
0.98623406 0.00222678 0.10513601
0.99492779 0.01375622 0.10531988
0.99958425 0.03433391 0.10998000
1.00000000 0.05913156 0.11657559
1.00000000 0.08587905 0.12397493
1.00000000 0.11062688 0.13159402
1.00000000 0.13238427 0.13918874
1.00000000 0.15174339 0.14661254
1.00000000 0.16925978 0.15388885
1.00000000 0.18540357 0.16111987
1.00000000 0.20056583 0.16844357
1.00000000 0.21508084 0.17601820
1.00000000 0.22923366 0.18400646
1.00000000 0.24327317 0.19257100
1.00000000 0.25739745 0.20184928
1.00000000 0.27172372 0.21191322
1.00000000 0.28618720 0.22265515
1.00000000 0.30030124 0.23352001
1.00000000 0.31250173 0.24278173
0.00000000 0.00000000 0.00000000
0.00000000 0.00000000 0.00000000
0.00000000 0.00000000 0.00000000
0.00000000 0.00000000 0.00000000
0.00000000 0.00000000 0.00000000
0.00000000 0.00000000 0.00000000
0.00000000 0.00000000 0.00000000
0.00000000 0.00000000 0.00000000
0.00000000 0.00000000 0.00000000
0.03381711 0.00333686 0.00590576
0.07741911 0.00250308 0.00877485
0.11997438 0.00030783 0.01069722
0.15790963 0.00000000 0.01264241
0.19302300 0.00000000 0.01490980
0.22643895 0.00000000 0.01752988
0.25867070 0.00000000 0.02059566
0.29002173 0.00000000 0.02420149
0.32051769 0.00000000 0.02853372
0.35063290 0.00000000 0.03350771
0.38075771 0.00000000 0.03900072
0.41105021 0.00000000 0.04497103
0.44150719 0.00000000 0.05145859
0.47207104 0.00000000 0.05853889
0.50286410 0.00000000 0.06614144
0.53397599 0.00000000 0.07419077
0.56424275 0.00000000 0.08225569
0.59270303 0.00000000 0.08964820
0.61978316 0.00000000 0.09626350
0.64574578 0.00000000 0.10215907
0.67076227 0.00000000 0.10737185
0.69495534 0.00000000 0.11191681
0.71840649 0.00000000 0.11580242
0.74117321 0.00000000 0.11902897
0.76326516 0.00000000 0.12162082
0.78470666 0.00000000 0.12357435
0.80551282 0.00000000 0.12488453
0.82567878 0.00000000 0.12556452
0.84520397 0.00000000 0.12560997
0.86407786 0.00000000 0.12502904
0.88228617 0.00000000 0.12383430
0.89980762 0.00000000 0.12204816
0.91661443 0.00000000 0.11970490
0.93265904 0.00000000 0.11686932
0.94786290 0.00000000 0.11365655
0.96207946 0.00000000 0.11028840
0.97503237 0.00000000 0.10719214
0.98623406 0.00222678 0.10513601
0.99492779 0.01375622 0.10531988
0.99958425 0.03433391 0.10998000
1.00000000 0.05913156 0.11657559
1.00000000 0.08587905 0.12397493
1.00000000 0.11062688 0.13159402
1.00000000 0.13238427 0.13918874
1.00000000 0.15174339 0.14661254
1.00000000 0.16925978 0.15388885
1.00000000 0.18540357 0.16111987
1.00000000 0.20056583 0.16844357
1.00000000 0.21508084 0.17601820
1.00000000 0.22923366 0.18400646
1.00000000 0.24327317 0.19257100
1.00000000 0.25739745 0.20184928
1.00000000 0.27172372 0.21191322
1.00000000 0.28618720 0.22265515
1.00000000 0.30030124 0.23352001
1.00000000 0.31250173 0.24278173
0.00000000 0.00000000 0.00000000
0.00000000 0.00000000 0.00000000
0.00000000 0.00000000 0.00000000
0.00000000 0.00000000 0.00000000
0.00000000 0.00000000 0.00000000
0.00000000 0.00000000 0.00000000
0.00000000 0.00000000 0.00000000
0.00407582 0.00443459 0.00105034
0.00000000 0.00000000 0.00000000
0.03381711 0.00333686 0.00590576
0.07741911 0.00250308 0.00877485
0.11997438 0.00030783 0.01069722
0.15790963 0.00000000 0.01264241
0.19302300 0.00000000 0.01490980
0.22643895 0.00000000 0.01752988
0.25867070 0.00000000 0.02059566
0.29002173 0.00000000 0.02420149
0.32051769 0.00000000 0.02853372
0.35063290 0.00000000 0.03350771
0.38075771 0.00000000 0.03900072
0.41105021 0.00000000 0.04497103
0.44150719 0.00000000 0.05145859
0.47207104 0.00000000 0.05853889
0.50286410 0.00000000 0.06614144
0.53397599 0.00000000 0.07419077
0.56424275 0.00000000 0.08225569
0.59270303 0.00000000 0.08964820
0.61978316 0.00000000 0.09626350
0.64574578 0.00000000 0.10215907
0.67076227 0.00000000 0.10737185
0.69495534 0.00000000 0.11191681
0.71840649 0.00000000 0.11580242
0.74117321 0.00000000 0.11902897
0.76326516 0.00000000 0.12162082
0.78470666 0.00000000 0.12357435
0.80551282 0.00000000 0.12488453
0.82567878 0.00000000 0.12556452
0.84520397 0.00000000 0.12560997
0.86407786 0.00000000 0.12502904
0.88228617 0.00000000 0.12383430
0.89980762 0.00000000 0.12204816
0.91661443 0.00000000 0.11970490
0.93265904 0.00000000 0.11686932
0.94786290 0.00000000 0.11365655
0.96207946 0.00000000 0.11028840
0.97503237 0.00000000 0.10719214
0.98623406 0.00222678 0.10513601
0.99492779 0.01375622 0.10531988
0.99958425 0.03433391 0.10998000
1.00000000 0.05913156 0.11657559
1.00000000 0.08587905 0.12397493
1.00000000 0.11062688 0.13159402
1.00000000 0.13238427 0.13918874
1.00000000 0.15174339 0.14661254
1.00000000 0.16925978 0.15388885
1.00000000 0.18540357 0.16111987
1.00000000 0.20056583 0.16844357
1.00000000 0.21508084 0.17601820
1.00000000 0.22923366 0.18400646
1.00000000 0.24327317 0.19257100
1.00000000 0.25739745 0.20184928
1.00000000 0.27172372 0.21191322
1.00000000 0.28618720 0.22265515
1.00000000 0.30030124 0.23352001
1.00000000 0.31250173 0.24278173
0.00000000 0.00000000 0.00000000
0.00000000 0.00000000 0.00000000
0.00000000 0.00000000 0.00000000
0.00000000 0.00000000 0.00000000
0.00906300 0.01097079 0.00584085
0.01935024 0.02217646 0.01281438
0.02937576 0.03231041 0.02001750
0.01449066 0.01581457 0.00802435
0.00000000 0.00000000 0.00000000
0.03381711 0.00333686 0.00590576
0.07741911 0.00250308 0.00877485
0.11997438 0.00030783 0.01069722
0.15790963 0.00000000 0.01264241
0.19302300 0.00000000 0.01490980
0.22643895 0.00000000 0.01752988
0.25867070 0.00000000 0.02059566
0.29002173 0.00000000 0.02420149
0.32051769 0.00000000 0.02853372
0.35063290 0.00000000 0.03350771
0.38075771 0.00000000 0.03900072
0.41105021 0.00000000 0.04497103
0.44150719 0.00000000 0.05145859
0.47207104 0.00000000 0.05853889
0.50286410 0.00000000 0.06614144
0.53397599 0.00000000 0.07419077
0.56424275 0.00000000 0.08225569
0.59270303 0.00000000 0.08964820
0.61978316 0.00000000 0.09626350
0.64574578 0.00000000 0.10215907
0.67076227 0.00000000 0.10737185
0.69495534 0.00000000 0.11191681
0.71840649 0.00000000 0.11580242
0.74117321 0.00000000 0.11902897
0.76326516 0.00000000 0.12162082
0.78470666 0.00000000 0.12357435
0.80551282 0.00000000 0.12488453
0.82567878 0.00000000 0.12556452
0.84520397 0.00000000 0.12560997
0.86407786 0.00000000 0.12502904
0.88228617 0.00000000 0.12383430
0.89980762 0.00000000 0.12204816
0.91661443 0.00000000 0.11970490
0.93265904 0.00000000 0.11686932
0.94786290 0.00000000 0.11365655
0.96207946 0.00000000 0.11028840
0.97503237 0.00000000 0.10719214
0.98623406 0.00222678 0.10513601
0.99492779 0.01375622 0.10531988
0.99958425 0.03433391 0.10998000
1.00000000 0.05913156 0.11657559
1.00000000 0.08587905 0.12397493
1.00000000 0.11062688 0.13159402
1.00000000 0.13238427 0.13918874
1.00000000 0.15174339 0.14661254
1.00000000 0.16925978 0.15388885
1.00000000 0.18540357 0.16111987
1.00000000 0.20056583 0.16844357
1.00000000 0.21508084 0.17601820
1.00000000 0.22923366 0.18400646
1.00000000 0.24327317 0.19257100
1.00000000 0.25739745 0.20184928
1.00000000 0.27172372 0.21191322
1.00000000 0.28618720 0.22265515
1.00000000 0.30030124 0.23352001
1.00000000 0.31250173 0.24278173
0.00000000 0.00000000 0.00000000
0.00000000 0.00000000 0.00000000
0.00000000 0.00000000 0.00000000
0.00000000 0.00000000 0.00000000
0.00613218 0.00798155 0.00363753
0.01342573 0.01624622 0.00832205
0.02035004 0.02348165 0.01273266
0.01525384 0.01722975 0.00858069
0.00187669 0.00245849 0.00000000
0.03381711 0.00333686 0.00590576
0.07741911 0.00250308 0.00877485
0.11997438 0.00030783 0.01069722
0.15790963 0.00000000 0.01264241
0.19302300 0.00000000 0.01490980
0.22643895 0.00000000 0.01752988
0.25867070 0.00000000 0.02059566
0.29002173 0.00000000 0.02420149
0.32051769 0.00000000 0.02853372
0.35063290 0.00000000 0.03350771
0.38075771 0.00000000 0.03900072
0.41105021 0.00000000 0.04497103
0.44150719 0.00000000 0.05145859
0.47207104 0.00000000 0.05853889
0.50286410 0.00000000 0.06614144
0.53397599 0.00000000 0.07419077
0.56424275 0.00000000 0.08225569
0.59270303 0.00000000 0.08964820
0.61978316 0.00000000 0.09626350
0.64574578 0.00000000 0.10215907
0.67076227 0.00000000 0.10737185
0.69495534 0.00000000 0.11191681
0.71840649 0.00000000 0.11580242
0.74117321 0.00000000 0.11902897
0.76326516 0.00000000 0.12162082
0.78470666 0.00000000 0.12357435
0.80551282 0.00000000 0.12488453
0.82567878 0.00000000 0.12556452
0.84520397 0.00000000 0.12560997
0.86407786 0.00000000 0.12502904
0.88228617 0.00000000 0.12383430
0.89980762 0.00000000 0.12204816
0.91661443 0.00000000 0.11970490
0.93265904 0.00000000 0.11686932
0.94786290 0.00000000 0.11365655
0.96207946 0.00000000 0.11028840
0.97503237 0.00000000 0.10719214
0.98623406 0.00222678 0.10513601
0.99492779 0.01375622 0.10531988
0.99958425 0.03433391 0.10998000
1.00000000 0.05913156 0.11657559
1.00000000 0.08587905 0.12397493
1.00000000 0.11062688 0.13159402
1.00000000 0.13238427 0.13918874
1.00000000 0.15174339 0.14661254
1.00000000 0.16925978 0.15388885
1.00000000 0.18540357 0.16111987
1.00000000 0.20056583 0.16844357
1.00000000 0.21508084 0.17601820
1.00000000 0.22923366 0.18400646
1.00000000 0.24327317 0.19257100
1.00000000 0.25739745 0.20184928
1.00000000 0.27172372 0.21191322
1.00000000 0.28618720 0.22265515
1.00000000 0.30030124 0.23352001
1.00000000 0.31250173 0.24278173
0.00690571 0.02354188 0.00957662
0.00690571 0.02354188 0.00957662
0.00690571 0.02354188 0.00957662
0.00690571 0.02354188 0.00957662
0.00690571 0.02354188 0.00957662
0.00690571 0.02354188 0.00957662
0.00690571 0.02354188 0.00957662
0.00690571 0.02354188 0.00957662
0.00690571 0.02354188 0.00957662
0.03361796 0.03619740 0.00973098
0.07610078 0.03847912 0.00863464
0.11964493 0.03742050 0.00912042
0.15882238 0.03519625 0.01002652
0.19557615 0.03223802 0.01111638
0.23093634 0.02860703 0.01242060
0.26534100 0.02444698 0.01397363
0.29897286 0.01995431 0.01592753
0.33114770 0.01600956 0.01902266
0.36232630 0.01265599 0.02314009
0.39338336 0.00936235 0.02776100
0.42455916 0.00601259 0.03278511
0.45581957 0.00273806 0.03830896
0.48683923 0.00005183 0.04468529
0.51787649 0.00000000 0.05174241
0.54914964 0.00000000 0.05930096
0.57944812 0.00000000 0.06713317
0.60777694 0.00000000 0.07490734
0.63463581 0.00000000 0.08244707
0.66032923 0.00000000 0.08942830
0.68503397 0.00000000 0.09572294
0.70892933 0.00000000 0.10128586
0.73207578 0.00000000 0.10615211
0.75449453 0.00000000 0.11036508
0.77621904 0.00000000 0.11393292
0.79733083 0.00000000 0.11679759
0.81784191 0.00000000 0.11896192
0.83773117 0.00000000 0.12046125
0.85700820 0.00000000 0.12128406
0.87565774 0.00000000 0.12144698
0.89365461 0.00000000 0.12097786
0.91096844 0.00004184 0.11991307
0.92754740 0.00104152 0.11831936
0.94330506 0.00241368 0.11631518
0.95808280 0.00456331 0.11412576
0.97158056 0.00828289 0.11218628
0.98322017 0.01511910 0.11133970
0.99192658 0.02795502 0.11312613
0.99682504 0.04919832 0.11877748
0.99966072 0.07444322 0.12603366
1.00000000 0.10016343 0.13377637
1.00000000 0.12303177 0.14157159
1.00000000 0.14363440 0.14935791
1.00000000 0.16220252 0.15693330
1.00000000 0.17905903 0.16425181
1.00000000 0.19455968 0.17137832
1.00000000 0.20903490 0.17842952
1.00000000 0.22277922 0.18554650
1.00000000 0.23605980 0.19288654
1.00000000 0.24911433 0.20061006
1.00000000 0.26215449 0.20887456
1.00000000 0.27535635 0.21781808
1.00000000 0.28882576 0.22751763
1.00000000 0.30250089 0.23787992
1.00000000 0.31591633 0.24837661
1.00000000 0.32764941 0.25741954
0.00775242 0.04812313 0.01411593
0.00775242 0.04812313 0.01411593
0.00775242 0.04812313 0.01411593
0.00775242 0.04812313 0.01411593
0.00775242 0.04812313 0.01411593
0.00775242 0.04812313 0.01411593
0.00775242 0.04812313 0.01411593
0.00775242 0.04812313 0.01411593
0.00775242 0.04812313 0.01411593
0.02809448 0.06508193 0.01018863
0.06488744 0.07128337 0.00610573
0.10951448 0.07224821 0.00376945
0.15075400 0.07115060 0.00360235
0.18889721 0.06904551 0.00444102
0.22529444 0.06610030 0.00556708
0.26070385 0.06236270 0.00680057
0.29565882 0.05777557 0.00808880
0.33007389 0.05264138 0.00979289
0.36406976 0.04710867 0.01199335
0.39797301 0.04106755 0.01449992
0.43196201 0.03446672 0.01724684
0.46589922 0.02756192 0.02045830
0.49876058 0.02180186 0.02528662
0.53103362 0.01693904 0.03132956
0.56337242 0.01230002 0.03794643
0.59452115 0.00825952 0.04511238
0.62328280 0.00542329 0.05283742
0.65038370 0.00332993 0.06063804
0.67617114 0.00184255 0.06831110
0.70081607 0.00096532 0.07578196
0.72450180 0.00057395 0.08289432
0.74733425 0.00060425 0.08937301
0.76936688 0.00104382 0.09513412
0.79066453 0.00181664 0.10017374
0.81138258 0.00261887 0.10436456
0.83144043 0.00361578 0.10783776
0.85089661 0.00466723 0.11055127
0.86979241 0.00564937 0.11247265
0.88809743 0.00659441 0.11364861
0.90576802 0.00756956 0.11413912
0.92275009 0.00867513 0.11401829
0.93894834 0.01012387 0.11341656
0.95419808 0.01232032 0.11256412
0.96818900 0.01606502 0.11189991
0.98032313 0.02293723 0.11227101
0.98940547 0.03610572 0.11532231
0.99461435 0.05782906 0.12213636
0.99778389 0.08344980 0.13032060
0.99982613 0.10820771 0.13876998
1.00000000 0.13021949 0.14706732
1.00000000 0.15015490 0.15520617
1.00000000 0.16843915 0.16319198
1.00000000 0.18511740 0.17085505
1.00000000 0.20042558 0.17820284
1.00000000 0.21463481 0.18532066
1.00000000 0.22801129 0.19233384
1.00000000 0.24080094 0.19938549
1.00000000 0.25323354 0.20663124
1.00000000 0.26552065 0.21423059
1.00000000 0.27785270 0.22233830
1.00000000 0.29039306 0.23109324
1.00000000 0.30324075 0.24057558
1.00000000 0.31633751 0.25070213
1.00000000 0.32923744 0.26096599
1.00000000 0.34062961 0.26988376
0.00751576 0.07301352 0.01763493
0.00751576 0.07301352 0.01763493
0.00751576 0.07301352 0.01763493
0.00751576 0.07301352 0.01763493
0.00751576 0.07301352 0.01763493
