LUTs/CinemaGamut_CanonLog3-to-BT709_WideDR_65_FF_Ver.2.0.cube
# Gamut : Cinema Gamut to BT.709
# Gamma : Canon Log 3 to Wide DR
# Range : Full in / Full out
# Version : 2.0 2019/10/24
# Copyright(c) 2019 Canon Inc. All Rights Reserved.
LUT_3D_SIZE 5
# LUT_3D_INPUT_RANGE 0.0 1.0
0.00000000 0.00000000 0.00000000
0.29002173 0.00000000 0.02420149
0.74117321 0.00000000 0.11902897
0.99958425 0.03433391 0.10998000
1.00000000 0.31250173 0.24278173
0.00161527 0.19884171 0.03569039
0.22971659 0.24645122 0.00000000
0.81215548 0.17021091 0.00407499
1.00000000 0.26573192 0.21578557
1.00000000 0.42561457 0.35213783
0.00369026 0.57411249 0.10056922
0.05805678 0.61611368 0.00752765
0.63292686 0.67809879 0.00000000
1.00000000 0.64600100 0.42639204
1.00000000 0.71627901 0.64561997
0.04400530 0.80682857 0.00745276
0.10866488 0.83576259 0.01235580
0.36997122 0.93903328 0.00138636
0.87732638 0.94792006 0.02300133
1.00000000 0.91010001 0.82817534
0.20011686 0.94947483 0.00000000
0.21083862 0.97549376 0.00024687
0.64051937 1.00000000 0.51571322
0.91958762 1.00000000 0.86168222
1.00000000 1.00000000 1.00000000
0.01585882 0.00407109 0.15078264
0.23167361 0.00000000 0.19623599
0.70479377 0.00000000 0.27651438
0.99059889 0.00278327 0.20287039
1.00000000 0.29513541 0.23729093
0.00000000 0.22566276 0.21196290
0.23600832 0.23600832 0.23600832
0.83102725 0.08627674 0.23009665
0.99989381 0.24049433 0.26982119
1.00000000 0.41109301 0.34565502
0.00000000 0.67228922 0.22208573
0.00000000 0.70909640 0.12033505
0.67311005 0.72090931 0.00000000
1.00000000 0.67129659 0.48898737
1.00000000 0.73184537 0.66818720
0.01153650 0.87586348 0.05057131
0.03383185 0.90334422 0.02042773
0.37887671 0.98497283 0.03897312
0.90434279 0.97604933 0.11519506
1.00000000 0.93219966 0.87181924
0.25174909 0.99967771 0.08451961
0.39051598 1.00000000 0.25178655
0.76768186 1.00000000 0.68056469
0.98224753 1.00000000 0.96657385
1.00000000 1.00000000 1.00000000
0.03587499 0.01064870 0.51208873
0.15746615 0.00000000 0.39654317
0.63374244 0.00000000 0.52204397
0.94091831 0.00000000 0.45837246
1.00000000 0.25321110 0.34921455
0.00000000 0.17790092 0.41755208
0.06509586 0.02959239 0.59331431
0.70895026 0.00000000 0.59829472
0.99720815 0.06920977 0.48233320
1.00000000 0.34496530 0.40376961
0.00000000 0.62611135 0.59361447
0.00000000 0.64827864 0.61562573
0.65092930 0.65092930 0.65092930
0.99198274 0.63862669 0.66060437
1.00000000 0.72409607 0.70831848
0.11067603 0.93931272 0.34089398
0.17597557 0.95278824 0.34438680
0.55567866 0.98136036 0.47621270
0.92007086 0.98040090 0.49265225
1.00000000 0.97128861 0.94780849
0.76308402 1.00000000 0.69869999
0.80527676 1.00000000 0.74803387
0.97592214 1.00000000 0.96385552
1.00000000 1.00000000 1.00000000
1.00000000 1.00000000 1.00000000
0.00000000 0.15699656 0.56046750
0.00261827 0.05912375 0.64610028
0.49407271 0.00000000 0.76530683
0.87714645 0.00001635 0.70031586
1.00000000 0.19659865 0.54891684
0.00000000 0.21381429 0.56858926
0.00000000 0.16363821 0.60300474
0.48186027 0.00000000 0.80951463
0.90257549 0.00000000 0.72132925
1.00000000 0.23968515 0.55964028
0.00486044 0.53533773 0.79370584
0.01805191 0.55494561 0.84747659
0.52918679 0.58742389 0.96155502
0.99656434 0.55188377 0.87400763
1.00000000 0.67506699 0.76895972
0.00000000 0.87507790 0.83006368
0.00000000 0.89169500 0.84613295
0.28733481 0.94985692 0.90921232
0.91241619 0.91241619 0.91241619
1.00000000 0.95250212 0.95428161
0.69656002 1.00000000 0.69808941
0.74702229 1.00000000 0.74216233
0.94837527 1.00000000 0.94088562
1.00000000 1.00000000 1.00000000
1.00000000 1.00000000 1.00000000
0.00000000 0.23610463 0.56668521
0.00000000 0.22006638 0.54732100
0.07767574 0.06561198 0.99285781
0.70079736 0.01061722 0.98250830
1.00000000 0.06948168 0.79481915
0.00000000 0.26365870 0.61833116
0.00000000 0.24525686 0.59405261
0.02490054 0.07521427 0.96727419
0.69861584 0.00725714 0.99196097
1.00000000 0.09725028 0.79645634
0.00000000 0.45676184 0.92059174
0.01041585 0.47332598 0.97604158
0.37407272 0.57380911 1.00000000
0.80676570 0.57368859 1.00000000
1.00000000 0.62260229 0.86822487
0.30473798 0.78315705 1.00000000
0.36974072 0.79698895 1.00000000
0.60553407 0.85644753 1.00000000
0.85796881 0.88927382 1.00000000
1.00000000 0.92427694 0.97524053
0.40388701 1.00000000 0.96491525
0.51025305 1.00000000 0.96970543
0.86141619 1.00000000 0.99338651
1.00000000 1.00000000 1.00000000
1.00000000 1.00000000 1.00000000
