LUTs/CinemaGamut_CanonLog3-to-BT709_WideDR_65_FF_Ver.2.0.cube
# Gamut : Cinema Gamut to BT.709
# Gamma : Canon Log 3 to Wide DR
# Range : Full in / Full out
# Version : 2.0 2019/10/24
# Copyright(c) 2019 Canon Inc. All Rights Reserved.
LUT_3D_SIZE 9
# LUT_3D_INPUT_RANGE 0.0 1.0
0.00000000 0.00000000 0.00000000
0.00000000 0.00000000 0.00000000
0.29002173 0.00000000 0.02420149
0.53397599 0.00000000 0.07419077
0.74117321 0.00000000 0.11902897
0.89980762 0.00000000 0.12204816
0.99958425 0.03433391 0.10998000
1.00000000 0.20056583 0.16844357
1.00000000 0.31250173 0.24278173
0.00000000 0.00000000 0.00000000
0.00187669 0.00245849 0.00000000
0.29002173 0.00000000 0.02420149
0.53397599 0.00000000 0.07419077
0.74117321 0.00000000 0.11902897
0.89980762 0.00000000 0.12204816
0.99958425 0.03433391 0.10998000
1.00000000 0.20056583 0.16844357
1.00000000 0.31250173 0.24278173
0.00161527 0.19884171 0.03569039
0.00161527 0.19884171 0.03569039
0.22971659 0.24645122 0.00000000
0.52977509 0.24189786 0.00000000
0.81215548 0.17021091 0.00407499
0.98817951 0.12340604 0.06418079
1.00000000 0.26573192 0.21578557
0.99983552 0.34853252 0.28523598
1.00000000 0.42561457 0.35213783
0.00065658 0.39803696 0.08316263
0.00065658 0.39803696 0.08316263
0.14827949 0.44522581 0.00050646
0.44515883 0.47520682 0.00000000
0.75593473 0.45554610 0.00000000
0.99683319 0.40293516 0.10069643
1.00000000 0.47183665 0.34560259
0.99919646 0.52220865 0.43611356
1.00000000 0.57700962 0.50437482
0.00369026 0.57411249 0.10056922
0.00369026 0.57411249 0.10056922
0.05805678 0.61611368 0.00752765
0.33633873 0.65991867 0.00079994
0.63292686 0.67809879 0.00000000
0.94145793 0.63602893 0.01537929
1.00000000 0.64600100 0.42639204
1.00000000 0.67539298 0.56514999
1.00000000 0.71627901 0.64561997
0.00723916 0.70974475 0.06039497
0.00723916 0.70974475 0.06039497
0.05095495 0.74434072 0.01413347
0.24267864 0.79425106 0.00110056
0.48561241 0.83473573 0.00125330
0.77512436 0.83447240 0.00040180
1.00000000 0.79358826 0.34261162
1.00000000 0.79838090 0.64631038
1.00000000 0.82397196 0.75012798
0.04400530 0.80682857 0.00745276
0.04400530 0.80682857 0.00745276
0.10866488 0.83576259 0.01235580
0.21326249 0.88606448 0.01464491
0.36997122 0.93903328 0.00138636
0.59803876 0.96499122 0.00711475
0.87732638 0.94792006 0.02300133
1.00000000 0.90325220 0.63730781
1.00000000 0.91010001 0.82817534
0.14503093 0.87124214 0.00586047
0.14503093 0.87124214 0.00586047
0.17114673 0.89894366 0.01153093
0.22056980 0.94917838 0.01663905
0.37047497 0.99756240 0.13567070
0.64192276 1.00000000 0.42946520
0.80922501 1.00000000 0.57302279
0.94635522 1.00000000 0.61068926
1.00000000 0.98014242 0.90027077
0.20011686 0.94947483 0.00000000
0.20011686 0.94947483 0.00000000
0.21083862 0.97549376 0.00024687
0.37247247 1.00000000 0.20916244
0.64051937 1.00000000 0.51571322
0.80869116 1.00000000 0.71722918
0.91958762 1.00000000 0.86168222
1.00000000 1.00000000 1.00000000
1.00000000 1.00000000 1.00000000
0.00000000 0.00000000 0.00000000
0.00000000 0.00000000 0.00000000
0.29002173 0.00000000 0.02420149
0.53397599 0.00000000 0.07419077
0.74117321 0.00000000 0.11902897
0.89980762 0.00000000 0.12204816
0.99958425 0.03433391 0.10998000
1.00000000 0.20056583 0.16844357
1.00000000 0.31250173 0.24278173
0.00000000 0.00000000 0.00000000
0.00000000 0.00000000 0.00000000
0.29002173 0.00000000 0.02420149
0.53397599 0.00000000 0.07419077
0.74117321 0.00000000 0.11902897
0.89980762 0.00000000 0.12204816
0.99958425 0.03433391 0.10998000
1.00000000 0.20056583 0.16844357
1.00000000 0.31250173 0.24278173
0.00161527 0.19884171 0.03569039
0.00161527 0.19884171 0.03569039
0.22971659 0.24645122 0.00000000
0.52977509 0.24189786 0.00000000
0.81215548 0.17021091 0.00407499
0.98817951 0.12340604 0.06418079
1.00000000 0.26573192 0.21578557
0.99983552 0.34853252 0.28523598
1.00000000 0.42561457 0.35213783
0.00065658 0.39803696 0.08316263
0.00065658 0.39803696 0.08316263
0.14827949 0.44522581 0.00050646
0.44515883 0.47520682 0.00000000
0.75593473 0.45554610 0.00000000
0.99683319 0.40293516 0.10069643
1.00000000 0.47183665 0.34560259
0.99919646 0.52220865 0.43611356
1.00000000 0.57700962 0.50437482
0.00369026 0.57411249 0.10056922
0.00369026 0.57411249 0.10056922
0.05805678 0.61611368 0.00752765
0.33633873 0.65991867 0.00079994
0.63292686 0.67809879 0.00000000
0.94145793 0.63602893 0.01537929
1.00000000 0.64600100 0.42639204
1.00000000 0.67539298 0.56514999
1.00000000 0.71627901 0.64561997
0.00723916 0.70974475 0.06039497
0.00723916 0.70974475 0.06039497
0.05095495 0.74434072 0.01413347
0.24267864 0.79425106 0.00110056
0.48561241 0.83473573 0.00125330
0.77512436 0.83447240 0.00040180
1.00000000 0.79358826 0.34261162
1.00000000 0.79838090 0.64631038
1.00000000 0.82397196 0.75012798
0.04400530 0.80682857 0.00745276
0.04400530 0.80682857 0.00745276
0.10866488 0.83576259 0.01235580
0.21326249 0.88606448 0.01464491
0.36997122 0.93903328 0.00138636
0.59803876 0.96499122 0.00711475
0.87732638 0.94792006 0.02300133
1.00000000 0.90325220 0.63730781
1.00000000 0.91010001 0.82817534
0.14503093 0.87124214 0.00586047
0.14503093 0.87124214 0.00586047
0.17114673 0.89894366 0.01153093
0.22056980 0.94917838 0.01663905
0.37047497 0.99756240 0.13567070
0.64192276 1.00000000 0.42946520
0.80922501 1.00000000 0.57302279
0.94635522 1.00000000 0.61068926
1.00000000 0.98014242 0.90027077
0.20011686 0.94947483 0.00000000
0.20011686 0.94947483 0.00000000
0.21083862 0.97549376 0.00024687
0.37247247 1.00000000 0.20916244
0.64051937 1.00000000 0.51571322
0.80869116 1.00000000 0.71722918
0.91958762 1.00000000 0.86168222
1.00000000 1.00000000 1.00000000
1.00000000 1.00000000 1.00000000
0.01585882 0.00407109 0.15078264
0.01585882 0.00407109 0.15078264
0.23167361 0.00000000 0.19623599
0.48333372 0.00000000 0.25483816
0.70479377 0.00000000 0.27651438
0.87349128 0.00000000 0.25695147
0.99059889 0.00278327 0.20287039
1.00000000 0.17468381 0.19314143
1.00000000 0.29513541 0.23729093
0.01585882 0.00407109 0.15078264
0.01585882 0.00407109 0.15078264
0.23167361 0.00000000 0.19623599
0.48333372 0.00000000 0.25483816
0.70479377 0.00000000 0.27651438
0.87349128 0.00000000 0.25695147
0.99059889 0.00278327 0.20287039
1.00000000 0.17468381 0.19314143
1.00000000 0.29513541 0.23729093
0.00000000 0.22566276 0.21196290
0.00000000 0.22566276 0.21196290
0.23600832 0.23600832 0.23600832
0.59147185 0.16263804 0.22770518
0.83102725 0.08627674 0.23009665
0.97157451 0.10304237 0.23629570
0.99989381 0.24049433 0.26982119
0.99885374 0.33243158 0.29589441
1.00000000 0.41109301 0.34565502
0.00000000 0.48051250 0.25862144
0.00000000 0.48051250 0.25862144
0.03828624 0.51215585 0.16258651
0.47526201 0.50227559 0.08131300
0.83347281 0.43267683 0.09434098
0.99001071 0.41521191 0.26346933
0.99936596 0.47711249 0.39095478
0.99885609 0.52563599 0.45392061
1.00000000 0.57738409 0.51077771
0.00000000 0.67228922 0.22208573
0.00000000 0.67228922 0.22208573
0.00000000 0.70909640 0.12033505
0.30710911 0.73603298 0.00000000
0.67311005 0.72090931 0.00000000
0.99168163 0.65463857 0.08977137
1.00000000 0.67129659 0.48898737
1.00000000 0.69584312 0.60049580
1.00000000 0.73184537 0.66818720
0.00573285 0.78779150 0.15641480
0.00573285 0.78779150 0.15641480
0.01217104 0.81900298 0.09178777
0.20475738 0.86031720 0.01324216
0.49213197 0.88462960 0.00000000
0.80720334 0.86850745 0.00077427
1.00000000 0.82313282 0.45419126
1.00000000 0.82383555 0.69721125
1.00000000 0.84536916 0.78282064
0.01153650 0.87586348 0.05057131
0.01153650 0.87586348 0.05057131
0.03383185 0.90334422 0.02042773
0.18594690 0.94480636 0.02610593
0.37887671 0.98497283 0.03897312
0.63545465 0.99582438 0.15445330
0.90434279 0.97604933 0.11519506
1.00000000 0.92724581 0.72835475
1.00000000 0.93219966 0.87181924
0.11130281 0.93501057 0.00709417
0.11130281 0.93501057 0.00709417
0.14878097 0.95923286 0.01724387
0.28699902 0.99410574 0.13590526
0.57193221 1.00000000 0.42522886
0.75595166 1.00000000 0.61419682
0.88117281 1.00000000 0.74166480
0.97475716 1.00000000 0.84280525
1.00000000 0.99781721 0.97863167
0.25174909 0.99967771 0.08451961
0.25174909 0.99967771 0.08451961
0.39051598 1.00000000 0.25178655
0.59281159 1.00000000 0.47529692
0.76768186 1.00000000 0.68056469
0.89431883 1.00000000 0.84154088
0.98224753 1.00000000 0.96657385
1.00000000 1.00000000 1.00000000
1.00000000 1.00000000 1.00000000
0.03601930 0.00710297 0.33950283
0.03601930 0.00710297 0.33950283
0.19632197 0.00000000 0.28757385
0.44337624 0.00000000 0.37291009
0.66886850 0.00000000 0.40444437
0.84161126 0.00000000 0.38724886
0.96733255 0.00000000 0.33216015
1.00000000 0.14086059 0.27962093
1.00000000 0.27751596 0.27699255
0.03601930 0.00710297 0.33950283
0.03601930 0.00710297 0.33950283
0.19632197 0.00000000 0.28757385
0.44337624 0.00000000 0.37291009
0.66886850 0.00000000 0.40444437
0.84161126 0.00000000 0.38724886
0.96733255 0.00000000 0.33216015
1.00000000 0.14086059 0.27962093
1.00000000 0.27751596 0.27699255
0.00000000 0.17811511 0.30183108
0.00000000 0.17811511 0.30183108
0.19070894 0.12294729 0.52610960
0.54846267 0.05577529 0.49222206
0.78616399 0.02353299 0.44542213
0.95130712 0.02113505 0.39975627
1.00000000 0.18099980 0.36691218
1.00000000 0.29589605 0.35136517
1.00000000 0.38657051 0.36220829
0.00000000 0.43831648 0.41505572
0.00000000 0.43831648 0.41505572
0.01735553 0.46672236 0.44411750
0.45620114 0.45620114 0.45620114
0.78754742 0.40516791 0.44804264
0.96869504 0.38660503 0.44703681
0.99820644 0.44996181 0.47453225
0.99781899 0.50749985 0.49448560
1.00000000 0.56541107 0.52219698
0.00548430 0.66636473 0.41501941
0.00548430 0.66636473 0.41501941
0.03990134 0.68867469 0.39518623
0.23907495 0.72352943 0.33255610
0.66721647 0.69833609 0.33583268
0.97439689 0.63764607 0.39220651
1.00000000 0.66337223 0.56642322
0.99965148 0.69802182 0.63802950
1.00000000 0.73969291 0.68835407
0.05169883 0.83906380 0.30171019
0.05169883 0.83906380 0.30171019
0.09953594 0.85663640 0.27340525
0.21028998 0.88945679 0.20356767
0.50666355 0.90221590 0.20208514
0.81836426 0.87918231 0.20202200
1.00000000 0.83659990 0.53964234
1.00000000 0.84402786 0.74306739
1.00000000 0.87016619 0.82104063
0.02586262 0.96351969 0.18669753
0.02586262 0.96351969 0.18669753
0.08155555 0.97818795 0.17404739
0.29590317 0.99517685 0.23652218
0.54622330 1.00000000 0.38028652
0.73741966 1.00000000 0.46625174
0.92948045 0.99650256 0.39661762
1.00000000 0.95414588 0.83237647
1.00000000 0.96468311 0.93327694
0.42502465 1.00000000 0.35354545
0.42502465 1.00000000 0.35354545
0.51481123 1.00000000 0.43229777
0.64358225 1.00000000 0.55630295
0.77781455 1.00000000 0.69724222
0.88991467 1.00000000 0.82607469
0.97300562 1.00000000 0.94074202
1.00000000 1.00000000 1.00000000
1.00000000 1.00000000 1.00000000
0.70665058 1.00000000 0.62282479
0.70665058 1.00000000 0.62282479
0.76439198 1.00000000 0.69054076
0.85430590 1.00000000 0.80084010
0.95086062 1.00000000 0.92707770
1.00000000 1.00000000 1.00000000
1.00000000 1.00000000 1.00000000
1.00000000 1.00000000 1.00000000
1.00000000 1.00000000 1.00000000
0.03587499 0.01064870 0.51208873
0.03587499 0.01064870 0.51208873
0.15746615 0.00000000 0.39654317
0.40162582 0.00034296 0.47571875
0.63374244 0.00000000 0.52204397
0.81174236 0.00000000 0.50955440
0.94091831 0.00000000 0.45837246
1.00000000 0.09213882 0.38548258
1.00000000 0.25321110 0.34921455
0.03587499 0.01064870 0.51208873
0.03587499 0.01064870 0.51208873
0.15746615 0.00000000 0.39654317
0.40162582 0.00034296 0.47571875
0.63374244 0.00000000 0.52204397
0.81174236 0.00000000 0.50955440
0.94091831 0.00000000 0.45837246
1.00000000 0.09213882 0.38548258
1.00000000 0.25321110 0.34921455
0.00000000 0.17790092 0.41755208
0.00000000 0.17790092 0.41755208
0.06509586 0.02959239 0.59331431
0.44924170 0.00387397 0.61882800
0.70895026 0.00000000 0.59829472
0.89346594 0.00000000 0.55014498
0.99720815 0.06920977 0.48233320
1.00000000 0.23721083 0.42537715
1.00000000 0.34496530 0.40376961
0.00000000 0.38741650 0.51052858
0.00000000 0.38741650 0.51052858
0.02309701 0.40223983 0.62254425
0.41655237 0.38357149 0.72174595
0.77810497 0.31448242 0.70798112
0.97946615 0.29978791 0.62117452
1.00000000 0.39949306 0.56754822
1.00000000 0.47065435 0.54604298
1.00000000 0.53625600 0.54829883
0.00000000 0.62611135 0.59361447
0.00000000 0.62611135 0.59361447
0.00000000 0.64827864 0.61562573
0.18770249 0.67829171 0.65016377
0.65092930 0.65092930 0.65092930
0.91791226 0.61570742 0.64356353
0.99198274 0.63862669 0.66060437
0.99798872 0.67838474 0.68128328
1.00000000 0.72409607 0.70831848
0.01462127 0.80736790 0.52650441
0.01462127 0.80736790 0.52650441
0.06046074 0.82482346 0.52618743
0.20531889 0.85549313 0.52556725
0.53279200 0.86021443 0.56233140
0.81269753 0.84206122 0.57163418
1.00000000 0.81002935 0.66506766
1.00000000 0.83308106 0.78114122
1.00000000 0.86845528 0.83830592
0.11067603 0.93931272 0.34089398
0.11067603 0.93931272 0.34089398
0.17597557 0.95278824 0.34438680
0.32629506 0.97308688 0.37626894
0.55567866 0.98136036 0.47621270
0.73313064 0.98724139 0.53733326
0.92007086 0.98040090 0.49265225
1.00000000 0.94969841 0.83906422
1.00000000 0.97128861 0.94780849
0.40447780 0.99868011 0.38036846
0.40447780 0.99868011 0.38036846
0.49171412 0.99847128 0.44692107
0.62475614 0.99953133 0.56189744
0.76708168 1.00000000 0.69989688
0.88524192 1.00000000 0.82732305
0.96994305 1.00000000 0.93691024
1.00000000 1.00000000 1.00000000
1.00000000 1.00000000 1.00000000
0.76308402 1.00000000 0.69869999
0.76308402 1.00000000 0.69869999
0.80527676 1.00000000 0.74803387
0.88270402 1.00000000 0.84270117
0.97592214 1.00000000 0.96385552
1.00000000 1.00000000 1.00000000
1.00000000 1.00000000 1.00000000
1.00000000 1.00000000 1.00000000
1.00000000 1.00000000 1.00000000
0.00288635 0.05797939 0.60092796
0.00288635 0.05797939 0.60092796
0.11043010 0.00053960 0.56606695
0.33408470 0.00050805 0.58509696
0.58185426 0.00000000 0.63260812
0.77654601 0.00000000 0.62785679
0.91271338 0.00000000 0.58065126
0.99801246 0.03350026 0.50408337
1.00000000 0.22741112 0.44353011
0.00288635 0.05797939 0.60092796
0.00288635 0.05797939 0.60092796
0.11043010 0.00053960 0.56606695
0.33408470 0.00050805 0.58509696
0.58185426 0.00000000 0.63260812
0.77654601 0.00000000 0.62785679
0.91271338 0.00000000 0.58065126
0.99801246 0.03350026 0.50408337
1.00000000 0.22741112 0.44353011
0.00000000 0.19154280 0.51889397
0.00000000 0.19154280 0.51889397
0.00924362 0.06702994 0.64066972
0.31051753 0.00000000 0.68408717
0.61393004 0.00000000 0.69334637
0.82169894 0.00000000 0.66632193
0.96040414 0.00000000 0.60690901
1.00000000 0.15574245 0.52269507
1.00000000 0.29558111 0.47068354
0.00000000 0.34413423 0.57595456
0.00000000 0.34413423 0.57595456
0.00000000 0.35392803 0.67460421
0.29956599 0.32188521 0.90449654
0.70552944 0.24052802 0.91573909
0.96131507 0.18573005 0.82014638
1.00000000 0.33586598 0.68260614
1.00000000 0.42734469 0.61646404
1.00000000 0.50157066 0.59146897
0.00487403 0.57723067 0.71200140
0.00487403 0.57723067 0.71200140
0.01937717 0.59437073 0.76942913
0.21986198 0.61314540 0.87971322
0.61729558 0.60298372 0.86208270
0.91601578 0.55584025 0.84422108
1.00000000 0.59468693 0.75842066
1.00000000 0.64831799 0.72942273
1.00000000 0.69989392 0.73275731
0.00000000 0.77012426 0.73041843
0.00000000 0.77012426 0.73041843
0.00000000 0.78866940 0.74856643
0.05835183 0.82026589 0.78143214
0.46743030 0.82913126 0.80356744
0.80176386 0.80176386 0.80176386
0.98019803 0.78627210 0.80158130
0.99807881 0.81497364 0.82302712
1.00000000 0.85430131 0.85310287
0.01125515 0.91051930 0.60391653
0.01125515 0.91051930 0.60391653
0.06282279 0.92556138 0.61112154
0.20860155 0.95171615 0.62969092
0.47847914 0.96447557 0.67716253
0.72884031 0.95636084 0.73777308
0.91945733 0.94376224 0.74811228
1.00000000 0.93234692 0.87684939
1.00000000 0.96351507 0.95023371
0.32189849 0.99251327 0.43172505
0.32189849 0.99251327 0.43172505
0.43064059 0.99218862 0.48830843
0.58489399 0.99315263 0.58981310
0.73576882 0.99694271 0.70753088
0.85975668 0.99989126 0.81775565
0.95194862 1.00000000 0.91211039
1.00000000 1.00000000 1.00000000
1.00000000 1.00000000 1.00000000
0.73470894 1.00000000 0.68516478
0.73470894 1.00000000 0.68516478
0.78083321 1.00000000 0.73479409
0.86516707 1.00000000 0.83043572
0.96635491 1.00000000 0.95358513
1.00000000 1.00000000 1.00000000
1.00000000 1.00000000 1.00000000
1.00000000 1.00000000 1.00000000
1.00000000 1.00000000 1.00000000
0.00000000 0.15699656 0.56046750
0.00000000 0.15699656 0.56046750
0.00261827 0.05912375 0.64610028
0.19922563 0.00230423 0.70671242
0.49407271 0.00000000 0.76530683
0.71804840 0.00000000 0.74362918
0.87714645 0.00001635 0.70031586
0.98047848 0.00354847 0.62762957
1.00000000 0.19659865 0.54891684
0.00000000 0.15699656 0.56046750
0.00000000 0.15699656 0.56046750
0.00261827 0.05912375 0.64610028
0.19922563 0.00230423 0.70671242
0.49407271 0.00000000 0.76530683
0.71804840 0.00000000 0.74362918
0.87714645 0.00001635 0.70031586
0.98047848 0.00354847 0.62762957
1.00000000 0.19659865 0.54891684
0.00000000 0.21381429 0.56858926
0.00000000 0.21381429 0.56858926
0.00000000 0.16363821 0.60300474
0.12024176 0.00000000 0.73068610
0.48186027 0.00000000 0.80951463
0.73464865 0.00000000 0.77293755
0.90257549 0.00000000 0.72132925
0.99636122 0.02996490 0.63857076
1.00000000 0.23968515 0.55964028
0.00023375 0.33107053 0.65085552
0.00023375 0.33107053 0.65085552
0.00000000 0.31078250 0.69495035
0.16530979 0.30113931 0.94163904
0.53949214 0.29067017 0.97382375
0.88383992 0.15422211 0.95157271
1.00000000 0.25141952 0.81408094
1.00000000 0.37987339 0.70343620
1.00000000 0.46634543 0.65311486
0.00486044 0.53533773 0.79370584
0.00486044 0.53533773 0.79370584
0.01805191 0.55494561 0.84747659
0.15044432 0.58552685 0.94287745
0.52918679 0.58742389 0.96155502
0.83610639 0.54531743 0.96895773
0.99656434 0.55188377 0.87400763
1.00000000 0.61784549 0.79058591
1.00000000 0.67506699 0.76895972
0.00556453 0.72374241 0.86746169
0.00556453 0.72374241 0.86746169
0.01751410 0.74042524 0.90400813
0.18355401 0.76675942 0.96256901
0.52486639 0.77694397 0.96190126
0.77522198 0.76970102 0.95935330
0.98179720 0.74961517 0.92562633
1.00000000 0.79136482 0.86856817
1.00000000 0.83660785 0.87169444
0.00000000 0.87507790 0.83006368
0.00000000 0.87507790 0.83006368
0.00000000 0.89169500 0.84613295
0.00777218 0.92162101 0.87624828
0.28733481 0.94985692 0.90921232
0.68234440 0.93343428 0.91340829
0.91241619 0.91241619 0.91241619
0.99850828 0.91629478 0.92203895
1.00000000 0.95250212 0.95428161
0.06158647 0.98110149 0.66017054
0.06158647 0.98110149 0.66017054
0.17704629 0.99080757 0.67604117
0.42252740 0.99547207 0.72731161
0.64124625 0.99725384 0.79923465
0.80530931 0.99827771 0.86669373
0.92020079 1.00000000 0.91910655
0.99672619 1.00000000 0.97000404
1.00000000 1.00000000 1.00000000
0.69656002 1.00000000 0.69808941
0.69656002 1.00000000 0.69808941
0.74702229 1.00000000 0.74216233
0.83878073 1.00000000 0.82827217
0.94837527 1.00000000 0.94088562
1.00000000 1.00000000 1.00000000
1.00000000 1.00000000 1.00000000
1.00000000 1.00000000 1.00000000
1.00000000 1.00000000 1.00000000
0.00000000 0.20206603 0.54515559
0.00000000 0.20206603 0.54515559
0.00000000 0.17702998 0.54225851
0.00522141 0.07724627 0.71581620
0.31331645 0.00315183 0.93204227
0.61604890 0.00000000 0.89644472
0.81473407 0.00000000 0.82010778
0.94613566 0.00085283 0.74939512
1.00000000 0.15050080 0.66344644
0.00000000 0.20206603 0.54515559
0.00000000 0.20206603 0.54515559
0.00000000 0.17702998 0.54225851
0.00522141 0.07724627 0.71581620
0.31331645 0.00315183 0.93204227
0.61604890 0.00000000 0.89644472
0.81473407 0.00000000 0.82010778
0.94613566 0.00085283 0.74939512
1.00000000 0.15050080 0.66344644
0.00000000 0.23714814 0.58784129
0.00000000 0.23714814 0.58784129
0.00000000 0.21137493 0.57748808
0.00000000 0.12407547 0.60370210
0.27725390 0.00000000 0.94593424
0.61106182 0.00000000 0.91956162
0.82522205 0.00000000 0.83689673
0.96079593 0.00000000 0.76123543
1.00000000 0.17726232 0.66693938
0.00203758 0.32730454 0.70566363
0.00203758 0.32730454 0.70566363
0.00000000 0.29758597 0.69767476
0.03814614 0.29498104 0.92590885
0.35078672 0.33932741 0.98816796
0.68304271 0.29913628 0.99768784
0.95640353 0.17223875 0.97473541
1.00000000 0.32162747 0.81218527
1.00000000 0.43121358 0.72821529
0.00635700 0.49569860 0.86801546
0.00635700 0.49569860 0.86801546
0.02952424 0.51437298 0.92672378
0.21210981 0.55128246 0.97522446
0.43573939 0.58966379 0.98139078
0.69849020 0.58212087 0.99239662
0.96786890 0.52376710 0.97691432
1.00000000 0.58764595 0.86017165
1.00000000 0.65213402 0.81489468
0.01555982 0.68778124 0.96416938
0.01555982 0.68778124 0.96416938
0.08478860 0.70513577 0.98794781
0.30693792 0.73400842 0.98570598
0.49922284 0.76579349 0.98005070
0.71939159 0.76882937 0.98720008
0.91934996 0.75016646 0.99071630
1.00000000 0.76928841 0.92383406
1.00000000 0.82008596 0.89732708
0.01551953 0.83048233 0.98000515
0.01551953 0.83048233 0.98000515
0.10762305 0.84417957 0.99818326
0.36014960 0.86155117 1.00000000
0.58184933 0.87930089 0.99516505
0.75642289 0.89175022 0.99021915
0.89563928 0.89510849 0.99262787
0.99934531 0.89797574 0.97121926
1.00000000 0.94093068 0.96320315
0.00000000 0.94900118 0.90034017
0.00000000 0.94900118 0.90034017
0.00000000 0.96386995 0.91480006
0.13198898 0.98802941 0.94016898
0.49998385 0.99435219 0.95767844
0.72905849 0.99445818 0.97187184
0.88125019 0.99380883 0.98379408
0.99115111 0.99115111 0.99115111
1.00000000 1.00000000 1.00000000
0.59753594 1.00000000 0.80525202
0.59753594 1.00000000 0.80525202
0.66313622 1.00000000 0.83138143
0.77992983 1.00000000 0.88382906
0.91639121 1.00000000 0.95420104
1.00000000 1.00000000 1.00000000
1.00000000 1.00000000 1.00000000
1.00000000 1.00000000 1.00000000
1.00000000 1.00000000 1.00000000
0.00000000 0.23610463 0.56668521
0.00000000 0.23610463 0.56668521
0.00000000 0.22006638 0.54732100
0.00000000 0.18831008 0.55053123
0.07767574 0.06561198 0.99285781
0.38114926 0.14327462 1.00000000
0.70079736 0.01061722 0.98250830
0.88128786 0.00134163 0.87190246
1.00000000 0.06948168 0.79481915
0.00000000 0.23610463 0.56668521
0.00000000 0.23610463 0.56668521
0.00000000 0.22006638 0.54732100
0.00000000 0.18831008 0.55053123
0.07767574 0.06561198 0.99285781
0.38114926 0.14327462 1.00000000
0.70079736 0.01061722 0.98250830
0.88128786 0.00134163 0.87190246
1.00000000 0.06948168 0.79481915
0.00000000 0.26365870 0.61833116
0.00000000 0.26365870 0.61833116
0.00000000 0.24525686 0.59405261
0.00000000 0.20297852 0.54767819
0.02490054 0.07521427 0.96727419
0.36412078 0.14532778 1.00000000
0.69861584 0.00725714 0.99196097
0.88802976 0.00000000 0.88133811
1.00000000 0.09725028 0.79645634
0.00000000 0.33368939 0.74722347
0.00000000 0.33368939 0.74722347
0.00000000 0.31198324 0.72175148
0.00000000 0.30314345 0.82216288
0.18351845 0.33974269 1.00000000
0.43887422 0.38266260 1.00000000
0.75364297 0.31613390 1.00000000
0.98600751 0.20774710 0.97492853
1.00000000 0.38172758 0.81972772
0.00000000 0.45676184 0.92059174
0.00000000 0.45676184 0.92059174
0.01041585 0.47332598 0.97604158
0.19155620 0.52040614 1.00000000
0.37407272 0.57380911 1.00000000
0.55352362 0.60393507 1.00000000
0.80676570 0.57368859 1.00000000
0.99494831 0.54127172 0.96494514
1.00000000 0.62260229 0.86822487
0.17945768 0.64471910 1.00000000
0.17945768 0.64471910 1.00000000
0.25710051 0.66346356 1.00000000
0.37683224 0.69862236 1.00000000
0.51126840 0.73926608 1.00000000
0.64692818 0.76738168 1.00000000
0.82407001 0.76336465 1.00000000
0.99641194 0.74146238 0.98431493
1.00000000 0.79859954 0.92468796
0.30473798 0.78315705 1.00000000
0.30473798 0.78315705 1.00000000
0.36974072 0.79698895 1.00000000
0.47946355 0.82362844 1.00000000
0.60553407 0.85644753 1.00000000
0.72219838 0.88362855 1.00000000
0.85796881 0.88927382 1.00000000
0.97067597 0.88771302 1.00000000
1.00000000 0.92427694 0.97524053
0.33023017 0.88536803 1.00000000
0.33023017 0.88536803 1.00000000
0.41156323 0.89414635 1.00000000
0.54530789 0.91119853 1.00000000
0.69401443 0.93252079 1.00000000
0.82138146 0.95153185 1.00000000
0.91729878 0.96665750 1.00000000
0.97983162 0.98005896 1.00000000
1.00000000 1.00000000 1.00000000
0.40388701 1.00000000 0.96491525
0.40388701 1.00000000 0.96491525
0.51025305 1.00000000 0.96970543
0.68000594 1.00000000 0.97950121
0.86141619 1.00000000 0.99338651
1.00000000 1.00000000 1.00000000
1.00000000 1.00000000 1.00000000
1.00000000 1.00000000 1.00000000
1.00000000 1.00000000 1.00000000
